X: 32761
T: Polska Från Skog
R: slip jig
M: 9/8
K: Bminor
F2B- Bc2 d2e|f2f ef^g e2f|d2f- fd2 c2A|B2d cA2 F3|
F2B- Bc2 d2e|f2f ef^g e2f|d2f- fd2 c2A|1 c>dc B6:|2 c>dc B3-B2 c]|
|:d2f- fd2 c2A|B2d cA2 F3|d2f- fd2 c2A|B2d (4cdcA F2E|
F2B- Bc2 d2e|f2f ef^g e2f|d2f- fd2 c2A|1 c>dc B3-B2 c:|2 c>dc B6||

